src/assets/icons/relation.svg

<svg width="34" height="24" viewBox="0 0 34 24" fill="none" xmlns="http://www.w3.org/2000/svg">
<path d="M0.5 3C0.5 1.61929 1.61929 0.5 3 0.5H31C32.3807 0.5 33.5 1.61929 33.5 3V21C33.5 22.3807 32.3807 23.5 31 23.5H3C1.61929 23.5 0.5 22.3807 0.5 21V3Z" fill="#F0F0FF" stroke="#D9D8FF"/>
<path fill-rule="evenodd" clip-rule="evenodd" d="M22.375 16.3162C22.7917 15.9093 23 15.4118 23 14.8235C23 14.2353 22.7941 13.7353 22.3824 13.3235L20.8529 11.7941C20.4412 11.3824 19.9412 11.1765 19.3529 11.1765C18.7549 11.1765 18.2451 11.3922 17.8235 11.8235L17.1765 11.1765C17.6078 10.7549 17.8235 10.2426 17.8235 9.63971C17.8235 9.05147 17.6201 8.55392 17.2132 8.14706L15.6985 6.625C15.2917 6.20833 14.7917 6 14.1985 6C13.6103 6 13.1127 6.20343 12.7059 6.61029L11.625 7.68382C11.2083 8.09069 11 8.58824 11 9.17647C11 9.76471 11.2059 10.2647 11.6176 10.6765L13.1471 12.2059C13.5588 12.6176 14.0588 12.8235 14.6471 12.8235C15.2451 12.8235 15.7549 12.6078 16.1765 12.1765L16.8235 12.8235C16.3922 13.2451 16.1765 13.7574 16.1765 14.3603C16.1765 14.9485 16.3799 15.4461 16.7868 15.8529L18.3015 17.375C18.7083 17.7917 19.2083 18 19.8015 18C20.3897 18 20.8873 17.7966 21.2941 17.3897L22.375 16.3162ZM16.4195 9.6381C16.4195 9.44202 16.3508 9.27535 16.2136 9.1381L14.6989 7.61604C14.5616 7.47878 14.395 7.41016 14.1989 7.41016C14.0077 7.41016 13.841 7.47633 13.6989 7.60869L12.618 8.68222C12.4807 8.81947 12.4121 8.98369 12.4121 9.17486C12.4121 9.37094 12.4807 9.53761 12.618 9.67486L14.1474 11.2043C14.2798 11.3366 14.4464 11.4028 14.6474 11.4028C14.8533 11.4028 15.0298 11.3268 15.1768 11.1749C15.1621 11.1602 15.1155 11.1148 15.0371 11.0388C14.9587 10.9629 14.906 10.9102 14.879 10.8807C14.8521 10.8513 14.8153 10.8048 14.7687 10.741C14.7222 10.6773 14.6903 10.6148 14.6731 10.5535C14.656 10.4923 14.6474 10.4249 14.6474 10.3513C14.6474 10.1553 14.716 9.98859 14.8533 9.85133C14.9905 9.71408 15.1572 9.64545 15.3533 9.64545C15.4268 9.64545 15.4942 9.65403 15.5555 9.67119C15.6168 9.68834 15.6793 9.72021 15.743 9.76677C15.8067 9.81334 15.8533 9.85011 15.8827 9.87707C15.9121 9.90403 15.9648 9.95672 16.0408 10.0352C16.1168 10.1136 16.1621 10.1602 16.1768 10.1749C16.3386 10.0229 16.4195 9.84398 16.4195 9.6381ZM21.5874 14.8251C21.5874 14.6291 21.5188 14.4624 21.3815 14.3251L19.8521 12.7957C19.7149 12.6585 19.5482 12.5898 19.3521 12.5898C19.1463 12.5898 18.9698 12.6683 18.8227 12.8251C18.8374 12.8398 18.884 12.8852 18.9624 12.9612C19.0409 13.0371 19.0936 13.0898 19.1205 13.1193C19.1475 13.1487 19.1842 13.1952 19.2308 13.259C19.2774 13.3227 19.3092 13.3852 19.3264 13.4465C19.3436 13.5077 19.3521 13.5751 19.3521 13.6487C19.3521 13.8447 19.2835 14.0114 19.1463 14.1487C19.009 14.2859 18.8423 14.3545 18.6463 14.3545C18.5727 14.3545 18.5053 14.346 18.444 14.3288C18.3828 14.3117 18.3203 14.2798 18.2565 14.2332C18.1928 14.1867 18.1463 14.1499 18.1168 14.1229C18.0874 14.096 18.0347 14.0433 17.9588 13.9648C17.8828 13.8864 17.8374 13.8398 17.8227 13.8251C17.661 13.9771 17.5801 14.156 17.5801 14.3619C17.5801 14.558 17.6487 14.7246 17.786 14.8619L19.3007 16.384C19.433 16.5163 19.5997 16.5825 19.8007 16.5825C19.9967 16.5825 20.1634 16.5188 20.3007 16.3913L21.3815 15.3178C21.5188 15.1805 21.5874 15.0163 21.5874 14.8251Z" fill="#271FE0"/>
</svg>

<svg width="34" height="24" fill="none" xmlns="http://www.w3.org/2000/svg"><path d="M.5 3A2.5 2.5 0 013 .5h28A2.5 2.5 0 0133.5 3v18a2.5 2.5 0 01-2.5 2.5H3A2.5 2.5 0 01.5 21V3z" fill="#F0F0FF" stroke="#D9D8FF"/><path fill-rule="evenodd" clip-rule="evenodd" d="M22.375 16.316c.417-.407.625-.904.625-1.492 0-.589-.206-1.089-.618-1.5l-1.53-1.53a2.042 2.042 0 00-1.5-.617 2.06 2.06 0 00-1.529.646l-.646-.646c.43-.422.646-.934.646-1.537a2.03 2.03 0 00-.61-1.493l-1.515-1.522a2.014 2.014 0 00-1.5-.625 2.03 2.03 0 00-1.492.61l-1.081 1.074A2.006 2.006 0 0011 9.176c0 .589.206 1.089.618 1.5l1.53 1.53c.41.412.91.617 1.5.617a2.06 2.06 0 001.529-.646l.646.646a2.069 2.069 0 00-.646 1.537c0 .588.203 1.086.61 1.493l1.515 1.522c.406.417.906.625 1.5.625a2.03 2.03 0 001.492-.61l1.081-1.074zm-5.956-6.678a.68.68 0 00-.205-.5l-1.515-1.522a.68.68 0 00-.5-.206.71.71 0 00-.5.199l-1.081 1.073a.672.672 0 00-.206.493.68.68 0 00.206.5l1.53 1.53a.678.678 0 00.5.198.71.71 0 00.529-.228l-.14-.136a4.46 4.46 0 01-.158-.158 1.756 1.756 0 01-.11-.14.593.593 0 01-.122-.39.68.68 0 01.206-.5.68.68 0 01.5-.206.59.59 0 01.39.121c.064.047.11.084.14.111.03.027.082.08.158.158l.136.14a.713.713 0 00.242-.537zm5.168 5.187a.68.68 0 00-.206-.5l-1.529-1.53a.68.68 0 00-.5-.205.7.7 0 00-.53.235l.14.136c.079.076.132.129.159.158.027.03.063.076.11.14a.591.591 0 01.121.39.681.681 0 01-.206.5.681.681 0 01-.5.206.591.591 0 01-.39-.121 1.746 1.746 0 01-.14-.111 4.395 4.395 0 01-.157-.158 20.642 20.642 0 00-.136-.14.714.714 0 00-.037 1.037l1.515 1.522a.678.678 0 00.5.198.708.708 0 00.5-.19l1.08-1.074a.672.672 0 00.206-.493z" fill="#271FE0"/></svg>
